X: 459
T:Hawtin's Return
M:4/4
L:1/8
C:Chris Corrigan
R:Reel
H:Composed November 19, 2001
N:Posted to the woodenflute mailing list November 2001
Z:Chris Corrigan
K:Bm
BFFE F2 (3Bcd| cA (3Bcd ~e3 g|~f3 e dBcA|(3Bcd cA BAFA|
~B3 d cA (3Bcd| edBf ~g3 e| fedf edcA| (3Bcd cA ~B3 A :||:
~b3 a ~g3 e|fedf ~g3 e|fedf edcA| (3Bcd cA BAFA|
~b3 a ~g3 e|fedf ~g3 e|fdBe cA (3Bcd|edcA ~B3 A :||
W:
W: For my friend Paul Hawtin, who is returning to Ottawa --
W: -- in the hopes that he will return to us again soon.
W:
W:November 2001
<end>
<start>
